app/assets/img/ic-legal.svg

<svg fill="none" height="42" viewBox="0 0 50 42" width="50" xmlns="http://www.w3.org/2000/svg"><path d="m49.7605 22.1626.0208-.0104-6.8271-13.65211h2.8792v-4.16667h-18.75v-4.166672h-4.1667v4.166672h-18.75003v4.16667h2.87917l-6.825006 13.65211.020833.0104c-.1437503.2792-.241667.5854-.241667.9208 0 5.7438 4.67292 10.4167 10.4167 10.4167 5.7437 0 10.4167-4.6729 10.4167-10.4167 0-.3354-.098-.6416-.2396-.9208l.0208-.0104-6.8271-13.65211h9.1292v29.16671h-6.25v4.1667h16.6667v-4.1667h-6.25v-29.16671h9.1291l-6.825 13.65211.0209.0104c-.1438.2792-.2417.5854-.2417.9208 0 5.7438 4.6729 10.4167 10.4167 10.4167 5.7437 0 10.4166-4.6729 10.4166-10.4167 0-.3354-.0979-.6416-.2395-.9208zm-39.3438-11.0875 4.9625 9.925h-9.92503zm0 18.2583c-2.71669 0-5.03336-1.7416-5.8917-4.1666h11.7833c-.8583 2.425-3.175 4.1666-5.8916 4.1666zm34.1292-8.3333h-9.925l4.9625-9.925zm-4.9625 8.3333c-2.7167 0-5.0334-1.7416-5.8917-4.1666h11.7833c-.8583 2.425-3.175 4.1666-5.8916 4.1666z" fill="#ab84c3"/></svg>

<svg width="50" height="42" viewBox="0 0 50 42" fill="none" xmlns="http://www.w3.org/2000/svg">
<path d="M49.7605 22.1626L49.7813 22.1522L42.9542 8.50009H45.8334V4.33342H27.0834V0.166748H22.9167V4.33342H4.16667V8.50009H7.04584L0.220834 22.1522L0.241667 22.1626C0.0979167 22.4418 0 22.748 0 23.0834C0 28.8272 4.67292 33.5001 10.4167 33.5001C16.1604 33.5001 20.8334 28.8272 20.8334 23.0834C20.8334 22.748 20.7354 22.4418 20.5938 22.1626L20.6146 22.1522L13.7875 8.50009H22.9167V37.6668H16.6667V41.8335H33.3334V37.6668H27.0834V8.50009H36.2125L29.3875 22.1522L29.4084 22.1626C29.2646 22.4418 29.1667 22.748 29.1667 23.0834C29.1667 28.8272 33.8396 33.5001 39.5834 33.5001C45.3271 33.5001 50 28.8272 50 23.0834C50 22.748 49.9021 22.4418 49.7605 22.1626V22.1626ZM10.4167 11.0751L15.3792 21.0001H5.45417L10.4167 11.0751ZM10.4167 29.3334C7.70001 29.3334 5.38334 27.5918 4.525 25.1668H16.3083C15.45 27.5918 13.1333 29.3334 10.4167 29.3334ZM44.5459 21.0001H34.6209L39.5834 11.0751L44.5459 21.0001V21.0001ZM39.5834 29.3334C36.8667 29.3334 34.55 27.5918 33.6917 25.1668H45.475C44.6167 27.5918 42.3 29.3334 39.5834 29.3334Z" fill="#AB84C3"/>
</svg>
